X: 38806
T: Sue Morley's
R: jig
M: 6/8
K: Adorian
|:~A3 c2B|AGE DEG|~A3 cAe|AdA cAG|
~A3 c2B|AGE DEG|~A3 BAG|1 ABA EFG:|2 ABA AB/c/d||
|:~e3 ~a3|ged AB/c/d|~e3 c'3|bag a2d|
~e3 ~a3|ged AB/c/d|~e3 dBG|1 ABA AB/c/d:|2 ABA EFG||

